contributed-vectors/dolomiti_superski.svg

<svg xmlns="http://www.w3.org/2000/svg" xml:space="preserve" style="fill-rule:evenodd;clip-rule:evenodd;stroke-linejoin:round;stroke-miterlimit:2" viewBox="0 0 192 192"><path d="M164.5 21.5c0-5.519-4.481-10-10-10h-133c-5.519 0-10 4.481-10 10v133c0 5.519 4.481 10 10 10h133c5.519 0 10-4.481 10-10v-133Z" style="fill:#9abeff" transform="translate(8 8)"/><path d="m89.071 108.964-7.602 7.602H34.894l7.602-7.602h46.575Z" style="fill:#fff" transform="translate(27.087 30.565) scale(.7274)"/><path d="m104.544 108.964-7.603 7.602H34.894l7.602-7.602h62.048Z" style="fill:#fff" transform="translate(27.173 -2.615) scale(.7274)"/><path d="m89.431 108.944-7.603 7.602-46.934.02 7.602-7.602 46.935-.02Z" style="fill:#fff" transform="translate(27.087 8.445) scale(.7274)"/><path d="m119.811 108.964-7.603 7.602H34.894l7.602-7.602h77.315Z" style="fill:#fff" transform="translate(27.173 -13.675) scale(.7274)"/><path d="m74.243 108.964-7.603 7.602H34.894l7.602-7.602h31.747Z" style="fill:#fff" transform="translate(27.087 19.505) scale(.7274)"/><path d="M127.457 48.145h18.418a5.773 5.773 0 0 1 4.044 9.895l-20.911 20.514 15.737.167a5.776 5.776 0 0 1 4.056 9.828l-38.799 39.421H98.656l42.019-41.813h-31.061l30.27-30.41H120.01l7.447-7.602Z" style="fill:#fff" transform="translate(27.087 30.565) scale(.7274)"/><path d="m90.603 127.97 33.761-34.211-29.411-.182 30.107-30.355-12.684.127-37.363 38.012H105.1L78.492 127.97h12.111Z" style="fill:#fff" transform="translate(27.087 30.565) scale(.7274)"/><path d="m162.831 124.169-7.602 7.602H34.894l7.617-7.602h120.32Z" style="fill:#fff" transform="translate(27.087 30.565) scale(.7274)"/></svg>

<?xml version="1.0" encoding="UTF-8" standalone="no"?>
<!DOCTYPE svg PUBLIC "-//W3C//DTD SVG 1.1//EN" "http://www.w3.org/Graphics/SVG/1.1/DTD/svg11.dtd">
<svg width="100%" height="100%" viewBox="0 0 192 192" version="1.1" xmlns="http://www.w3.org/2000/svg" xmlns:xlink="http://www.w3.org/1999/xlink" xml:space="preserve" xmlns:serif="http://www.serif.com/" style="fill-rule:evenodd;clip-rule:evenodd;stroke-linejoin:round;stroke-miterlimit:2;">
    <g id="Layer1">
        <g transform="matrix(1,0,0,1,8,8)">
            <path d="M164.5,21.5C164.5,15.981 160.019,11.5 154.5,11.5L21.5,11.5C15.981,11.5 11.5,15.981 11.5,21.5L11.5,154.5C11.5,160.019 15.981,164.5 21.5,164.5L154.5,164.5C160.019,164.5 164.5,160.019 164.5,154.5L164.5,21.5Z" style="fill:rgb(154,190,255);"/>
        </g>
        <g transform="matrix(0.727401,0,0,0.727401,27.0875,30.5646)">
            <path d="M89.071,108.964L81.469,116.566L34.894,116.566L42.496,108.964L89.071,108.964Z" style="fill:white;"/>
            <g transform="matrix(1,0,0,1,0.117366,-45.6145)">
                <path d="M104.544,108.964L96.941,116.566L34.894,116.566L42.496,108.964L104.544,108.964Z" style="fill:white;"/>
            </g>
            <g transform="matrix(1,0,0,1,0,-30.4097)">
                <path d="M89.431,108.944L81.828,116.546L34.894,116.566L42.496,108.964L89.431,108.944Z" style="fill:white;"/>
            </g>
            <g transform="matrix(1,0,0,1,0.117366,-60.8194)">
                <path d="M119.811,108.964L112.208,116.566L34.894,116.566L42.496,108.964L119.811,108.964Z" style="fill:white;"/>
            </g>
            <g transform="matrix(1,0,0,1,0,-15.2048)">
                <path d="M74.243,108.964L66.64,116.566L34.894,116.566L42.496,108.964L74.243,108.964Z" style="fill:white;"/>
            </g>
            <path d="M127.457,48.145L145.875,48.145C148.221,48.145 150.333,49.563 151.22,51.734C152.107,53.906 151.593,56.398 149.919,58.04C140.871,66.917 129.008,78.554 129.008,78.554C129.008,78.554 137.074,78.64 144.745,78.721C147.061,78.745 149.139,80.152 150.023,82.293C150.907,84.435 150.426,86.898 148.801,88.549C134.719,102.857 110.002,127.97 110.002,127.97L98.656,127.97L140.675,86.157L109.614,86.157L139.884,55.747L120.01,55.747L127.457,48.145Z" style="fill:white;"/>
            <path d="M90.603,127.97L124.364,93.759L94.953,93.577L125.06,63.222L112.376,63.349L75.013,101.361L105.1,101.361L78.492,127.97L90.603,127.97Z" style="fill:white;"/>
            <path d="M162.831,124.169L155.229,131.771L34.894,131.771L42.511,124.169L162.831,124.169Z" style="fill:white;"/>
        </g>
    </g>
</svg>
